assets/images/cs2.svg

<svg width="32" height="19" viewBox="0 0 32 19" fill="none" xmlns="http://www.w3.org/2000/svg">
<g clip-path="url(#clip0_38_74)">
<path d="M15.4799 18H17.3699C17.689 17.9654 17.9895 17.8327 18.2299 17.62C18.4051 17.3793 18.4965 17.0877 18.4899 16.79C18.4899 16.79 18.4899 14.26 19.6299 13.88C20.7699 13.5 22.2799 16.34 23.8599 17.42C24.473 17.8795 25.2387 18.087 25.9999 18H30.1899C30.1899 18 32.3999 17.86 31.3499 16.13C30.521 14.7447 29.4587 13.5132 28.2099 12.49C25.5599 10.03 25.9199 10.43 29.1099 6.18C31.0499 3.56 31.8299 2 31.5799 1.3C31.3299 0.600002 29.9199 0.830002 29.9199 0.830002H25.1699C24.958 0.804083 24.743 0.838755 24.5499 0.930002C24.3726 1.06542 24.2288 1.23995 24.1299 1.44C23.6404 2.71879 23.0555 3.95895 22.3799 5.15C20.2599 8.75 19.3799 8.94 19.0699 8.72C18.2599 8.2 18.4599 6.63 18.4599 5.51C18.4599 2.02 18.9899 0.570002 17.4599 0.190002C16.7214 0.0290833 15.965 -0.0347891 15.2099 1.74716e-06C13.8626 -0.125357 12.5038 0.0139225 11.2099 0.410002C10.6699 0.670002 10.2599 1.26 10.5099 1.3C10.7924 1.31143 11.0698 1.37925 11.3257 1.49947C11.5815 1.61968 11.8108 1.78987 11.9999 2C12.3302 2.67096 12.4916 3.41246 12.4699 4.16C12.4699 4.16 12.7499 8.26 11.8199 8.77C11.1799 9.12 10.2999 8.4 8.40994 5.14C7.76715 4.00498 7.19927 2.82914 6.70994 1.62C6.62197 1.41596 6.48858 1.23469 6.31994 1.09C6.08615 0.941013 5.82394 0.842257 5.54994 0.800002L0.999943 0.830002C0.999943 0.830002 0.349943 0.850002 0.0999428 1.14C-0.150057 1.43 0.0799428 2 0.0799428 2C0.0799428 2 3.61994 10.22 7.62994 14.4C8.6234 15.5041 9.8324 16.3931 11.1825 17.0122C12.5325 17.6314 13.995 17.9675 15.4799 18Z" fill="#BABAB9"/>
</g>
<defs>
<clipPath id="clip0_38_74">
<rect width="31.63" height="18.05" fill="white"/>
</clipPath>
</defs>
</svg>

<svg width="32" height="19" fill="none" xmlns="http://www.w3.org/2000/svg"><g clip-path="url(#clip0_38_74)"><path d="M15.48 18h1.89a1.55 1.55 0 00.86-.38 1.36 1.36 0 00.26-.83s0-2.53 1.14-2.91c1.14-.38 2.65 2.46 4.23 3.54A3 3 0 0026 18h4.19s2.21-.14 1.16-1.87a13.997 13.997 0 00-3.14-3.64c-2.65-2.46-2.29-2.06.9-6.31C31.05 3.56 31.83 2 31.58 1.3c-.25-.7-1.66-.47-1.66-.47h-4.75a1.13 1.13 0 00-.62.1c-.177.135-.321.31-.42.51a27.3 27.3 0 01-1.75 3.71c-2.12 3.6-3 3.79-3.31 3.57-.81-.52-.61-2.09-.61-3.21 0-3.49.53-4.94-1-5.32A8.69 8.69 0 0015.21 0a10.38 10.38 0 00-4 .41c-.54.26-.95.85-.7.89A2.12 2.12 0 0112 2a4.59 4.59 0 01.47 2.16s.28 4.1-.65 4.61c-.64.35-1.52-.37-3.41-3.63a29.92 29.92 0 01-1.7-3.52 1.46 1.46 0 00-.39-.53A2 2 0 005.55.8L1 .83s-.65.02-.9.31S.08 2 .08 2s3.54 8.22 7.55 12.4a10.88 10.88 0 007.85 3.6z" fill="#BABAB9"/></g><defs><clipPath id="clip0_38_74"><path fill="#fff" d="M0 0h31.63v18.05H0z"/></clipPath></defs></svg>
